X: 24347
T: Louis De Carlo's
R: reel
M: 4/4
K: Gmajor
|:DEGA B2AG|EGA/B/d edBG|DEGA BGA/B/d|edBG BAGE|
DEGA B2AG|EGA/B/d edBG|E2cB cBAG|d d2 B A~G3:|
|:E2cB cBAG|D/D/D BA B2|E2cB cGB/c/d|edBG BAGz|
E2cB cBAG|ddBA B2|E2cB cBAG|d d2 B A~G3:|

